app/img/src/logo.svg

<svg width="190" height="60" viewBox="0 0 190 60" fill="none" xmlns="http://www.w3.org/2000/svg">
<path d="M25.637 46.4164C26.5217 41.1655 30.5533 37.8348 36.6629 37.8348H52.5397C58.4653 37.8348 59.7241 33.9529 59.7241 33.9529C58.8394 39.2038 56.4288 42.5345 50.3191 42.5345H34.0326C27.2936 42.5345 25.637 46.4164 25.637 46.4164Z" fill="#DF2325"/>
<path d="M52.2662 43.5361C50.9184 45.5571 49.3568 45.7349 46.394 45.7349C43.4312 45.7349 39.9519 45.8001 35.1366 45.7349C29.9532 45.6638 25.9513 47.9988 25.6248 53.0778C26.9726 51.0569 28.7241 50.6894 31.6869 50.6894C34.6497 50.6894 36.431 50.6243 41.2462 50.6894C46.4237 50.7665 50.4731 48.4848 52.2662 43.5361Z" fill="#EE4523"/>
<path d="M25.6365 57.2916C25.6365 55.2707 28.4093 54.1861 31.7224 54.1861C35.0355 54.1861 41.448 54.6247 44.1733 52.7045C43.4311 54.921 36.6624 60 29.8996 60C26.8358 60 25.6365 58.5243 25.6365 57.2916Z" fill="#FE5F3E"/>
<path d="M13.6087 25.5911C18.8693 26.4741 22.2062 30.4982 22.2062 36.5966V52.4441C22.2062 58.3588 26.0952 59.6152 26.0952 59.6152C20.8346 58.7321 17.4978 56.326 17.4978 50.2276V33.9712C17.4978 27.2386 13.6087 25.5911 13.6087 25.5911Z" fill="#172C4F"/>
<path d="M16.4926 52.1651C14.4679 50.8198 14.2898 49.2612 14.2898 46.3038C14.2898 43.3465 14.2245 39.8736 14.2898 35.0672C14.3611 29.8933 12.0217 25.8988 6.93329 25.5729C8.95797 26.9182 9.32609 28.6665 9.32609 31.6239C9.32609 34.5812 9.3914 36.3591 9.32609 41.1655C9.25484 46.3394 11.5348 50.3753 16.4926 52.1651Z" fill="#264A74"/>
<path d="M2.71936 25.5926C4.74404 25.5926 5.8306 28.3603 5.8306 31.6673C5.8306 34.9683 5.39123 41.3749 7.31497 44.0952C5.08841 43.3544 0 36.5981 0 29.8419C0 26.7838 1.48437 25.5926 2.71936 25.5926Z" fill="#345A87"/>
<path d="M34.4801 13.5836C33.5954 18.8345 29.5638 22.1652 23.4542 22.1652H7.57143C1.64583 22.1652 0.387085 26.0471 0.387085 26.0471C1.27177 20.7962 3.68238 17.4655 9.79204 17.4655H26.0785C32.8235 17.4655 34.4801 13.5836 34.4801 13.5836Z" fill="#DF2325"/>
<path d="M7.85016 16.4639C9.19797 14.4429 10.7595 14.2651 13.7223 14.2651C16.6851 14.2651 20.1645 14.1999 24.9798 14.2651C30.1632 14.3363 34.165 12.0012 34.4916 6.92218C33.1438 8.94312 31.3922 9.31057 28.4294 9.31057C25.4666 9.31057 23.6854 9.37576 18.8701 9.31057C13.6926 9.23352 9.64328 11.5152 7.85016 16.4639Z" fill="#EE4523"/>
<path d="M34.4811 2.70841C34.4811 4.72935 31.7083 5.81391 28.3952 5.81391C25.082 5.81391 18.6696 5.37535 15.9443 7.29554C16.6865 5.07902 23.4552 0 30.218 0C33.2817 0 34.4811 1.4757 34.4811 2.70841Z" fill="#FE5F3E"/>
<path d="M46.5082 34.4093C41.2476 33.5263 37.9107 29.5022 37.9107 23.4038V7.55628C37.9107 1.64162 34.0217 0.385193 34.0217 0.385193C39.2823 1.26824 42.6191 3.67441 42.6191 9.77279V26.0292C42.6191 32.7618 46.5082 34.4093 46.5082 34.4093Z" fill="#172C4F"/>
<path d="M43.6226 7.83496C45.6473 9.18028 45.8254 10.739 45.8254 13.6963C45.8254 16.6536 45.8907 20.1265 45.8254 24.933C45.7542 30.1068 48.0935 34.1013 53.182 34.4272C51.1573 33.0819 50.7892 31.3336 50.7892 28.3763C50.7892 25.4189 50.7238 23.641 50.7892 18.8346C50.8604 13.6607 48.5804 9.62477 43.6226 7.83496Z" fill="#264A74"/>
<path d="M57.3968 34.4094C55.3721 34.4094 54.2856 31.6417 54.2856 28.3347C54.2856 25.0336 54.725 18.6271 52.8012 15.9068C55.0218 16.6476 60.1102 23.4038 60.1102 30.1541C60.1162 33.2181 58.6318 34.4094 57.3968 34.4094Z" fill="#345A87"/>
<path d="M84.485 6.44214V33.5441H95.1546V39.8203H76.3387V6.44214H84.485Z" fill="#172C4F"/>
<path d="M119.547 12.9554H107.209V19.7057H118.116V25.9819H107.209V33.307H119.547V39.8203H99.0624V6.44214H119.547V12.9554Z" fill="#172C4F"/>
<path d="M145.655 33.9234H133.174L131.173 39.8203H122.647L134.748 6.44214H144.182L156.283 39.8203H147.662L145.655 33.9234ZM139.414 15.4267L135.318 27.6472H143.559L139.414 15.4267Z" fill="#172C4F"/>
<path d="M190.001 23.1312C190.001 33.0226 183.144 39.8203 172.474 39.8203H159.946V6.44214H172.474C183.144 6.44214 190.001 13.1924 190.001 23.1312ZM171.945 32.7796C178.091 32.7796 181.713 29.2592 181.713 23.1253C181.713 16.9913 178.091 13.3762 171.945 13.3762H168.086V32.7736H171.945V32.7796Z" fill="#172C4F"/>
<path d="M115.467 51.8156H112.053L111.465 53.481H110.07L112.991 45.332H114.541L117.462 53.481H116.055L115.467 51.8156ZM113.763 46.944L112.427 50.7252H115.093L113.763 46.944Z" fill="#172C4F"/>
<path d="M128.935 48.9908C128.935 51.4977 127.219 53.0326 124.606 53.0326H121.941V44.8955H124.606C127.219 44.8896 128.935 46.472 128.935 48.9908ZM124.606 51.9422C126.53 51.9422 127.563 50.8398 127.563 48.9908C127.563 47.1298 126.53 45.9801 124.606 45.9801H123.282V51.9422H124.606Z" fill="#172C4F"/>
<path d="M138.755 45.338H140.162L137.099 53.4751H135.549L132.473 45.338H133.904L136.321 52.106L138.755 45.338Z" fill="#172C4F"/>
<path d="M144.538 45.338H145.874V53.4751H144.538V45.338Z" fill="#172C4F"/>
<path d="M153.687 53.5583C152.054 53.5583 150.801 52.6693 150.801 51.2291H152.232C152.292 51.8988 152.761 52.4381 153.687 52.4381C154.625 52.4381 155.153 51.9344 155.153 51.241C155.153 49.2734 150.825 50.5476 150.825 47.5488C150.825 46.1205 151.965 45.2315 153.628 45.2315C155.189 45.2315 156.293 46.0494 156.406 47.448H154.928C154.88 46.8969 154.399 46.3931 153.556 46.3694C152.784 46.3457 152.185 46.7191 152.185 47.5073C152.185 49.3445 156.501 48.2007 156.501 51.1758C156.501 52.3907 155.504 53.5583 153.687 53.5583Z" fill="#172C4F"/>
<path d="M165.047 53.5578C162.749 53.5578 160.879 51.8392 160.879 49.3856C160.879 46.9498 162.743 45.2252 165.047 45.2252C167.368 45.2252 169.215 46.9439 169.215 49.3856C169.215 51.8392 167.374 53.5578 165.047 53.5578ZM165.047 52.4022C166.668 52.4022 167.838 51.2287 167.838 49.3915C167.838 47.5543 166.662 46.4045 165.047 46.4045C163.426 46.4045 162.256 47.5543 162.256 49.3915C162.256 51.2287 163.432 52.4022 165.047 52.4022Z" fill="#172C4F"/>
<path d="M176.784 45.338C178.72 45.338 179.67 46.4521 179.67 47.7737C179.67 48.7338 179.153 49.7651 177.782 50.1029L179.8 53.4751H178.203L176.327 50.2214H175.306V53.4751H173.97V45.338H176.784ZM176.784 46.4284H175.306V49.1546H176.784C177.829 49.1546 178.298 48.5798 178.298 47.7737C178.298 46.9559 177.829 46.4284 176.784 46.4284Z" fill="#172C4F"/>
<path d="M187.187 53.5583C185.554 53.5583 184.301 52.6693 184.301 51.2291H185.732C185.792 51.8988 186.261 52.4381 187.187 52.4381C188.125 52.4381 188.653 51.9344 188.653 51.241C188.653 49.2734 184.325 50.5476 184.325 47.5488C184.325 46.1205 185.465 45.2315 187.128 45.2315C188.689 45.2315 189.793 46.0494 189.906 47.448H188.428C188.38 46.8969 187.899 46.3931 187.056 46.3694C186.284 46.3457 185.685 46.7191 185.685 47.5073C185.685 49.3445 190.001 48.2007 190.001 51.1758C190.001 52.3907 189.004 53.5583 187.187 53.5583Z" fill="#172C4F"/>
</svg>

<svg xmlns="http://www.w3.org/2000/svg" width="190" height="60" fill="none" viewBox="0 0 190 60"><path fill="#DF2325" d="M25.637 46.416c.885-5.25 4.916-8.581 11.026-8.581H52.54c5.925 0 7.184-3.882 7.184-3.882-.885 5.25-3.295 8.581-9.405 8.581H34.033c-6.74 0-8.396 3.882-8.396 3.882Z"/><path fill="#EE4523" d="M52.266 43.536c-1.348 2.021-2.91 2.199-5.872 2.199-2.963 0-6.442.065-11.257 0-5.184-.071-9.186 2.264-9.512 7.343 1.348-2.021 3.1-2.389 6.062-2.389 2.963 0 4.744-.065 9.56 0 5.177.078 9.226-2.204 11.02-7.153Z"/><path fill="#FE5F3E" d="M25.637 57.292c0-2.021 2.772-3.106 6.085-3.106s9.726.439 12.451-1.481C43.431 54.92 36.663 60 29.9 60c-3.064 0-4.263-1.476-4.263-2.708Z"/><path fill="#172C4F" d="M13.609 25.591c5.26.883 8.597 4.907 8.597 11.006v15.847c0 5.915 3.89 7.171 3.89 7.171-5.261-.883-8.598-3.289-8.598-9.387V33.97c0-6.732-3.89-8.38-3.89-8.38Z"/><path fill="#264A74" d="M16.493 52.165c-2.025-1.345-2.203-2.904-2.203-5.861 0-2.958-.065-6.43 0-11.237.071-5.174-2.268-9.168-7.357-9.494 2.025 1.345 2.393 3.093 2.393 6.05 0 2.958.065 4.736 0 9.543-.071 5.173 2.209 9.21 7.167 11Z"/><path fill="#345A87" d="M2.72 25.593c2.024 0 3.11 2.767 3.11 6.074 0 3.301-.439 9.708 1.485 12.428C5.088 43.355 0 36.598 0 29.842c0-3.058 1.484-4.25 2.72-4.25Z"/><path fill="#DF2325" d="M34.48 13.584c-.885 5.25-4.916 8.581-11.026 8.581H7.571c-5.925 0-7.184 3.882-7.184 3.882.885-5.25 3.295-8.582 9.405-8.582h16.286c6.746 0 8.402-3.881 8.402-3.881Z"/><path fill="#EE4523" d="M7.85 16.464c1.348-2.021 2.91-2.199 5.872-2.199 2.963 0 6.443-.065 11.258 0 5.183.071 9.185-2.264 9.512-7.343-1.348 2.021-3.1 2.389-6.063 2.389-2.962 0-4.744.065-9.559 0-5.177-.077-9.227 2.204-11.02 7.153Z"/><path fill="#FE5F3E" d="M34.481 2.708c0 2.021-2.773 3.106-6.086 3.106s-9.725-.439-12.45 1.482C16.685 5.079 23.454 0 30.217 0c3.064 0 4.263 1.476 4.263 2.708Z"/><path fill="#172C4F" d="M46.508 34.41c-5.26-.884-8.597-4.908-8.597-11.006V7.556c0-5.914-3.89-7.17-3.89-7.17 5.261.882 8.598 3.288 8.598 9.387v16.256c0 6.733 3.89 8.38 3.89 8.38Z"/><path fill="#264A74" d="M43.623 7.835c2.024 1.345 2.202 2.904 2.202 5.861 0 2.958.066 6.43 0 11.237-.07 5.174 2.268 9.168 7.357 9.494-2.025-1.345-2.393-3.093-2.393-6.05 0-2.958-.065-4.736 0-9.542.071-5.174-2.209-9.21-7.166-11Z"/><path fill="#345A87" d="M57.397 34.41c-2.025 0-3.111-2.768-3.111-6.075 0-3.301.439-9.708-1.485-12.428 2.22.74 7.31 7.497 7.31 14.247.005 3.064-1.48 4.255-2.714 4.255Z"/><path fill="#172C4F" d="M84.485 6.442v27.102h10.67v6.276H76.339V6.442h8.146ZM119.547 12.955h-12.338v6.75h10.907v6.277h-10.907v7.325h12.338v6.513H99.062V6.442h20.485v6.513ZM145.655 33.923h-12.481l-2.001 5.897h-8.526l12.101-33.378h9.434l12.101 33.378h-8.621l-2.007-5.897Zm-6.241-18.496-4.096 12.22h8.241l-4.145-12.22ZM190.001 23.131c0 9.892-6.857 16.69-17.527 16.69h-12.528V6.441h12.528c10.67 0 17.527 6.75 17.527 16.69Zm-18.056 9.649c6.146 0 9.768-3.52 9.768-9.655 0-6.134-3.622-9.749-9.768-9.749h-3.859v19.398h3.859v.006ZM115.467 51.816h-3.414l-.588 1.665h-1.395l2.921-8.149h1.55l2.921 8.149h-1.407l-.588-1.665Zm-1.704-4.872-1.336 3.781h2.666l-1.33-3.781ZM128.935 48.99c0 2.508-1.716 4.043-4.329 4.043h-2.665v-8.138h2.665c2.613-.005 4.329 1.577 4.329 4.096Zm-4.329 2.952c1.924 0 2.957-1.102 2.957-2.951 0-1.861-1.033-3.01-2.957-3.01h-1.324v5.961h1.324ZM138.755 45.338h1.407l-3.063 8.137h-1.55l-3.076-8.137h1.431l2.417 6.768 2.434-6.768ZM144.538 45.338h1.336v8.137h-1.336v-8.137ZM153.687 53.558c-1.633 0-2.886-.889-2.886-2.329h1.431c.06.67.529 1.21 1.455 1.21.938 0 1.466-.505 1.466-1.198 0-1.968-4.328-.693-4.328-3.692 0-1.428 1.14-2.318 2.803-2.318 1.561 0 2.665.818 2.778 2.217h-1.478c-.048-.551-.529-1.055-1.372-1.079-.772-.023-1.371.35-1.371 1.138 0 1.837 4.316.694 4.316 3.669 0 1.215-.997 2.382-2.814 2.382ZM165.047 53.558c-2.298 0-4.168-1.719-4.168-4.172 0-2.436 1.864-4.16 4.168-4.16 2.321 0 4.168 1.718 4.168 4.16 0 2.453-1.841 4.172-4.168 4.172Zm0-1.156c1.621 0 2.791-1.173 2.791-3.01 0-1.838-1.176-2.988-2.791-2.988-1.621 0-2.791 1.15-2.791 2.987 0 1.838 1.176 3.011 2.791 3.011ZM176.784 45.338c1.936 0 2.886 1.114 2.886 2.436 0 .96-.517 1.991-1.888 2.329l2.018 3.372h-1.597l-1.876-3.254h-1.021v3.254h-1.336v-8.137h2.814Zm0 1.09h-1.478v2.727h1.478c1.045 0 1.514-.575 1.514-1.381 0-.818-.469-1.346-1.514-1.346ZM187.187 53.558c-1.633 0-2.886-.889-2.886-2.329h1.431c.06.67.529 1.21 1.455 1.21.938 0 1.466-.505 1.466-1.198 0-1.968-4.328-.693-4.328-3.692 0-1.428 1.14-2.318 2.803-2.318 1.561 0 2.665.818 2.778 2.217h-1.478c-.048-.551-.529-1.055-1.372-1.079-.772-.023-1.371.35-1.371 1.138 0 1.837 4.316.694 4.316 3.669 0 1.215-.997 2.382-2.814 2.382Z"/></svg>
